src/assets/tokens/goledo-white.svg

<svg width="150" height="150" viewBox="0 0 150 150" fill="none" xmlns="http://www.w3.org/2000/svg">
<g clip-path="url(#clip0_519_2176)">
<path d="M65.5559 54.8898C59.2121 47.5937 71.3274 38.9554 75.9796 34.4388C75.1337 37.9132 71.1783 45.509 77.522 53.8472C82.8394 60.8363 69.3622 67.5076 65.5559 72.0241C67.2479 67.1602 70.7398 60.8517 65.5559 54.8898Z" fill="white"/>
<path d="M64.4378 80.6213H98.7931V98.1536C98.7931 113.003 86.7553 125.04 71.9062 125.04C57.0575 125.04 45.0198 113.003 45.0198 98.1536V49.4214C45.0198 34.5725 57.0575 22.535 71.9062 22.535C86.7553 22.535 98.7931 34.5725 98.7931 49.4214V56.9239" stroke="white" stroke-width="7.90909" stroke-linecap="round"/>
<path d="M101.879 80.6212H111.276C116.938 80.6212 121.527 85.2104 121.527 90.8718C121.527 96.5331 116.938 101.122 111.278 101.122C108.102 101.122 104.7 101.122 101.879 101.122" stroke="white" stroke-width="7.90909"/>
<path d="M74.9999 146.203C114.324 146.203 146.202 114.324 146.202 75C146.202 35.6759 114.324 3.79745 74.9999 3.79745C35.6758 3.79745 3.79736 35.6759 3.79736 75C3.79736 114.324 35.6758 146.203 74.9999 146.203Z" stroke="white" stroke-width="7.90909"/>
</g>
<defs>
<clipPath id="clip0_519_2176">
<rect width="150" height="150" fill="white"/>
</clipPath>
</defs>
</svg>

<svg width="150" height="150" viewBox="0 0 150 150" fill="none" xmlns="http://www.w3.org/2000/svg"><g clip-path="url(#clip0_519_2176)"><path d="M65.556 54.89c-6.344-7.296 5.771-15.935 10.424-20.451-.846 3.474-4.802 11.07 1.542 19.408 5.317 6.99-8.16 13.66-11.966 18.177 1.692-4.864 5.184-11.172 0-17.134z" fill="#fff"/><path d="M64.438 80.621h34.355v17.533c0 14.849-12.038 26.886-26.887 26.886S45.02 113.003 45.02 98.154V49.42c0-14.849 12.037-26.886 26.886-26.886 14.85 0 26.887 12.037 26.887 26.886v7.503" stroke="#fff" stroke-width="7.909" stroke-linecap="round"/><path d="M101.879 80.621h9.397c5.662 0 10.251 4.59 10.251 10.25 0 5.662-4.589 10.251-10.249 10.251h-9.399" stroke="#fff" stroke-width="7.909"/><path d="M75 146.203c39.324 0 71.202-31.879 71.202-71.203S114.324 3.797 75 3.797 3.797 35.676 3.797 75 35.676 146.203 75 146.203z" stroke="#fff" stroke-width="7.909"/></g><defs><clipPath id="clip0_519_2176"><path fill="#fff" d="M0 0h150v150H0z"/></clipPath></defs></svg>
